; generated by PrusaSlicer 2.4.1+win64 on 2023-02-12 at 11:12:59 UTC

; 

; external perimeters extrusion width = 0.60mm
; perimeters extrusion width = 0.43mm
; infill extrusion width = 0.45mm
; solid infill extrusion width = 0.70mm
; top infill extrusion width = 0.45mm
; support material extrusion width = 0.37mm
; first layer extrusion width = 0.42mm

M73 P0 R120
M201 X9000 Y9000 Z500 E10000 ; sets maximum accelerations, mm/sec^2
M203 X500 Y500 Z12 E120 ; sets maximum feedrates, mm / sec
M204 P2000 R1500 T2000 ; sets acceleration (P, T) and retract acceleration (R), mm/sec^2
M205 X10.00 Y10.00 Z0.20 E4.50 ; sets the jerk limits, mm/sec
M205 S0 T0 ; sets the minimum extruding and travel feed rate, mm/sec
M107
;TYPE:Custom
M862.3 P "MK2.5S" ; printer model check
M862.1 P0.4 ; nozzle diameter check
M115 U3.11.0 ; tell printer latest fw version
G90 ; use absolute coordinates
M83 ; extruder relative mode
M104 S240 ; set extruder temp
M140 S85 ; set bed temp
M190 S85 ; wait for bed temp
M109 S240 ; wait for extruder temp
G28 W ; home all without mesh bed level
G80 ; mesh bed leveling

G1 Z0.2 F720
G1 Y-3 F1000 ; go outside print area
G92 E0
G1 X60 E9 F1000 ; intro line
G1 X100 E12.5 F1000 ; intro line

G92 E0
G21 ; set units to millimeters
G90 ; use absolute coordinates
M83 ; use relative distances for extrusion
M900 K0.08 ; Filament gcode LA 1.5
M900 K45 ; Filament gcode LA 1.0
M107
;LAYER_CHANGE
;Z:0.2
;HEIGHT:0.2
;BEFORE_LAYER_CHANGE
G92 E0.0
;0.2


G1 E-1 F2100
G1 Z.2 F720
;AFTER_LAYER_CHANGE
;0.2
G1 Z.4
G1 X81.557 Y58.217 F10800
G1 Z.2 F720
G1 E1 F2100
M204 S800
;TYPE:Skirt/Brim
;WIDTH:0.42
G1 F1200
G1 X106.801 Y32.973 E1.11935
G1 X107.593 Y32.45 E.02977
G1 X124.6 Y25.592 E.57497
G1 X126.226 Y25.537 E.051
G1 X218.506 Y55.619 E3.04323
G1 X220.024 Y56.242 E.05145
G1 X221.096 Y56.84 E.03849
G1 X222.452 Y57.825 E.05255
G1 X223.585 Y58.906 E.04911
G1 X224.631 Y60.215 E.05255
G1 X225.278 Y61.259 E.03849
G1 X225.983 Y62.779 E.05255
G1 X226.446 Y64.276 E.04911
G1 X226.724 Y65.928 E.05255
G1 X226.78 Y67.154 E.03849
G1 X226.672 Y68.717 E.04912
G1 X226.446 Y69.924 E.03848
G1 X225.943 Y71.522 E.05255
G1 X225.278 Y72.94 E.04911
G1 X224.565 Y74.077 E.04206
G1 X223.585 Y75.293 E.04897
G1 X123.457 Y175.37 E4.4387
G1 X122.568 Y176.047 E.03505
G1 X121.62 Y176.64 E.03505
G1 X120.622 Y177.143 E.03505
G1 X119.582 Y177.551 E.03504
G1 X118.508 Y177.862 E.03505
G1 X117.41 Y178.072 E.03505
G1 X115.515 Y178.193 E.05955
G1 X113.406 Y177.98 E.06645
G1 X112.319 Y177.719 E.03504
G1 X111.261 Y177.359 E.03505
G1 X110.241 Y176.903 E.03505
G1 X109.267 Y176.355 E.03505
G1 X108.347 Y175.719 E.03505
G1 X107.491 Y175.001 E.03505
G1 X106.409 Y173.868 E.04911
G1 X105.424 Y172.512 E.05255
G1 X104.827 Y171.44 E.03849
G1 X104.203 Y169.922 E.05145
G1 X74.121 Y77.642 E3.04323
G1 X74.176 Y76.016 E.051
G1 X81.034 Y59.009 E.57497
G1 X81.524 Y58.267 E.02789
M204 S1000
; printing object uve soprte.STL id:0 copy 0
;WIPE_START
G1 F8640
G1 X84.433 Y55.357 E-.95
;WIPE_END
G1 E-.05 F2100
G1 Z.4 F720
G1 X83.238 Y69.242 F10800
G1 Z.2 F720
G1 E1 F2100
M204 S800
;TYPE:Support material
G1 F1200
G1 X83.238 Y59.898 E.29296
G1 X85.533 Y59.898 E.07195
G1 X85.533 Y57.603 E.07195
G1 X87.828 Y57.603 E.07195
G1 X87.828 Y55.308 E.07195
G1 X90.123 Y55.308 E.07195
G1 X90.123 Y53.013 E.07195
G1 X92.418 Y53.013 E.07195
G1 X92.418 Y50.718 E.07195
G1 X94.713 Y50.718 E.07195
G1 X94.713 Y48.423 E.07195
G1 X97.008 Y48.423 E.07195
G1 X97.008 Y46.129 E.07195
G1 X99.303 Y46.129 E.07195
G1 X99.303 Y43.834 E.07195
G1 X101.597 Y43.834 E.07195
G1 X101.597 Y41.539 E.07195
G1 X103.892 Y41.539 E.07195
G1 X103.892 Y39.244 E.07195
G1 X106.187 Y39.244 E.07195
G1 X106.187 Y36.949 E.07195
G1 X108.482 Y36.949 E.07195
G1 X108.482 Y34.654 E.07195
G1 X117.826 Y34.654 E.29296
G1 X83.278 Y69.202 E1.53189
M204 S1000
G1 X116.914 Y35.326 F10800
M204 S800
G1 F1200
G1 X116.914 Y34.994 E.01041
G1 X116.495 Y34.994 E.01314
G1 X116.495 Y35.505 E.01602
G1 X116.076 Y35.924 E.01858
G1 X116.076 Y34.994 E.02916
G1 X115.657 Y34.994 E.01314
G1 X115.657 Y36.342 E.0423
G1 X115.238 Y36.761 E.01858
G1 X115.238 Y34.994 E.05543
G1 X114.82 Y34.994 E.01314
G1 X114.82 Y37.18 E.06857
G1 X114.401 Y37.599 E.01858
G1 X114.401 Y34.994 E.08171
G1 X113.982 Y34.994 E.01314
G1 X113.982 Y38.018 E.09484
G1 X113.563 Y38.437 E.01858
G1 X113.563 Y34.994 E.10798
G1 X113.144 Y34.994 E.01314
G1 X113.144 Y38.856 E.12112
G1 X112.725 Y39.275 E.01858
G1 X112.725 Y34.994 E.13425
G1 X112.306 Y34.994 E.01314
G1 X112.306 Y39.694 E.14739
G1 X111.887 Y40.113 E.01858
G1 X111.887 Y34.994 E.16053
G1 X111.468 Y34.994 E.01314
G1 X111.468 Y40.532 E.17366
G1 X111.049 Y40.951 E.01858
G1 X111.049 Y34.994 E.1868
G1 X110.63 Y34.994 E.01314
G1 X110.63 Y41.37 E.19994
G1 X110.211 Y41.789 E.01858
G1 X110.211 Y34.994 E.21307
G1 X109.792 Y34.994 E.01314
G1 X109.792 Y42.208 E.22621
G1 X109.373 Y42.627 E.01858
G1 X109.373 Y34.994 E.23935
G1 X108.954 Y34.994 E.01314
G1 X108.954 Y43.046 E.25248
G1 X108.535 Y43.465 E.01858
G1 X108.535 Y37.288 E.19367
G1 X108.116 Y37.288 E.01314
G1 X108.116 Y43.884 E.2068
G1 X107.697 Y44.303 E.01858
G1 X107.697 Y37.288 E.21994
G1 X107.278 Y37.288 E.01314
G1 X107.278 Y44.722 E.23308
G1 X106.859 Y45.141 E.01858
G1 X106.859 Y37.288 E.24621
G1 X106.527 Y37.288 E.01042
G1 X106.527 Y39.583 E.07195
G1 X106.44 Y39.583 E.00272
G1 X106.44 Y45.56 E.18739
G1 X106.021 Y45.979 E.01858
G1 X106.021 Y39.583 E.20053
G1 X105.602 Y39.583 E.01314
G1 X105.602 Y46.398 E.21367
G1 X105.183 Y46.817 E.01858
G1 X105.183 Y39.583 E.22681
G1 X104.764 Y39.583 E.01314
G1 X104.764 Y47.236 E.23994
G1 X104.345 Y47.655 E.01858
G1 X104.345 Y39.583 E.25308
G1 X104.232 Y39.583 E.00356
G1 X104.232 Y41.878 E.07195
G1 X103.926 Y41.878 E.00958
G1 X103.926 Y48.074 E.19426
G1 X103.507 Y48.493 E.01858
G1 X103.507 Y41.878 E.2074
G1 X103.088 Y41.878 E.01314
G1 X103.088 Y48.912 E.22053
G1 X102.669 Y49.331 E.01858
G1 X102.669 Y41.878 E.23367
G1 X102.25 Y41.878 E.01314
G1 X102.25 Y49.75 E.24681
G1 X101.831 Y50.169 E.01858
G1 X101.831 Y44.173 E.18799
G1 X101.412 Y44.173 E.01314
G1 X101.412 Y50.588 E.20113
G1 X100.993 Y51.007 E.01858
G1 X100.993 Y44.173 E.21426
G1 X100.574 Y44.173 E.01314
G1 X100.574 Y51.426 E.2274
G1 X100.155 Y51.845 E.01858
G1 X100.155 Y44.173 E.24054
G1 X99.736 Y44.173 E.01314
G1 X99.736 Y52.264 E.25367
G1 X99.317 Y52.683 E.01858
G1 X99.317 Y46.468 E.19486
G1 X98.898 Y46.468 E.01314
G1 X98.898 Y53.102 E.20799
G1 X98.479 Y53.521 E.01858
G1 X98.479 Y46.468 E.22113
G1 X98.06 Y46.468 E.01314
G1 X98.06 Y53.94 E.23427
G1 X97.641 Y54.358 E.01858
G1 X97.641 Y46.468 E.2474
G1 X97.347 Y46.468 E.00923
G1 X97.347 Y48.763 E.07195
G1 X97.222 Y48.763 E.0039
G1 X97.222 Y54.777 E.18858
G1 X96.803 Y55.196 E.01858
G1 X96.803 Y48.763 E.20172
G1 X96.385 Y48.763 E.01314
G1 X96.385 Y55.615 E.21486
G1 X95.966 Y56.034 E.01858
G1 X95.966 Y48.763 E.22799
G1 X95.547 Y48.763 E.01314
G1 X95.547 Y56.453 E.24113
G1 X95.128 Y56.872 E.01858
G1 X95.128 Y48.763 E.25427
G1 X95.052 Y48.763 E.00237
G1 X95.052 Y51.058 E.07195
G1 X94.709 Y51.058 E.01077
G1 X94.709 Y57.291 E.19545
G1 X94.29 Y57.71 E.01858
G1 X94.29 Y51.058 E.20859
G1 X93.871 Y51.058 E.01314
G1 X93.871 Y58.129 E.22172
G1 X93.452 Y58.548 E.01858
G1 X93.452 Y51.058 E.23486
G1 X93.033 Y51.058 E.01314
G1 X93.033 Y58.967 E.248
G1 X92.614 Y59.386 E.01858
G1 X92.614 Y53.353 E.18918
G1 X92.195 Y53.353 E.01314
G1 X92.195 Y59.805 E.20232
G1 X91.776 Y60.224 E.01858
G1 X91.776 Y53.353 E.21545
G1 X91.357 Y53.353 E.01314
G1 X91.357 Y60.643 E.22859
G1 X90.938 Y61.062 E.01858
G1 X90.938 Y53.353 E.24173
G1 X90.519 Y53.353 E.01314
G1 X90.519 Y61.481 E.25486
G1 X90.1 Y61.9 E.01858
G1 X90.1 Y55.648 E.19604
G1 X89.681 Y55.648 E.01314
G1 X89.681 Y62.319 E.20918
G1 X89.262 Y62.738 E.01858
M73 P0 R119
G1 X89.262 Y55.648 E.22232
G1 X88.843 Y55.648 E.01314
G1 X88.843 Y63.157 E.23546
G1 X88.424 Y63.576 E.01858
G1 X88.424 Y55.648 E.24859
G1 X88.167 Y55.648 E.00804
G1 X88.167 Y57.942 E.07195
G1 X88.005 Y57.942 E.00509
G1 X88.005 Y63.995 E.18977
G1 X87.586 Y64.414 E.01858
G1 X87.586 Y57.942 E.20291
G1 X87.167 Y57.942 E.01314
G1 X87.167 Y64.833 E.21605
G1 X86.748 Y65.252 E.01858
G1 X86.748 Y57.942 E.22918
G1 X86.329 Y57.942 E.01314
G1 X86.329 Y65.671 E.24232
G1 X85.91 Y66.09 E.01858
G1 X85.91 Y57.942 E.25546
G1 X85.873 Y57.942 E.00118
G1 X85.873 Y60.237 E.07195
G1 X85.491 Y60.237 E.01196
G1 X85.491 Y66.509 E.19664
G1 X85.072 Y66.928 E.01858
G1 X85.072 Y60.237 E.20978
G1 X84.653 Y60.237 E.01314
G1 X84.653 Y67.347 E.22291
G1 X84.234 Y67.766 E.01858
G1 X84.234 Y60.237 E.23605
G1 X83.815 Y60.237 E.01314
G1 X83.815 Y68.425 E.25671
M204 S1000
;WIPE_START
G1 F8640
G1 X83.815 Y64.31 E-.95
;WIPE_END
G1 E-.05 F2100
G1 Z.4 F720
G1 X105.951 Y55.672 F10800
G1 Z.2 F720
G1 E1 F2100
M204 S800
G1 F1200
G1 X106.251 Y55.713 E.0095
G1 X106.608 Y55.84 E.01187
G1 X106.866 Y55.999 E.0095
G1 X107.09 Y56.203 E.0095
G1 X107.272 Y56.445 E.0095
G1 X107.406 Y56.717 E.0095
G1 X107.488 Y57.008 E.0095
G1 X107.515 Y57.31 E.0095
G1 X107.485 Y57.612 E.0095
G1 X107.4 Y57.902 E.0095
G1 X107.262 Y58.172 E.0095
G1 X107.024 Y58.466 E.01187
G1 X106.788 Y58.657 E.0095
G1 X106.522 Y58.801 E.0095
G1 X106.158 Y58.907 E.01187
G1 X105.856 Y58.93 E.0095
G1 X105.555 Y58.897 E.0095
G1 X105.265 Y58.808 E.0095
G1 X104.934 Y58.625 E.01187
G1 X104.706 Y58.426 E.0095
G1 X104.518 Y58.188 E.0095
G1 X104.377 Y57.92 E.0095
G1 X104.275 Y57.556 E.01187
G1 X104.256 Y57.253 E.0095
G1 X104.293 Y56.953 E.0095
G1 X104.385 Y56.664 E.0095
G1 X104.528 Y56.397 E.0095
G1 X104.773 Y56.109 E.01186
G1 X105.013 Y55.924 E.0095
G1 X105.283 Y55.786 E.0095
G1 X105.574 Y55.701 E.0095
G1 X105.895 Y55.671 E.0101
M204 S1000
G1 X106.859 Y58.388 F10800
M204 S800
G1 F1200
G1 X106.859 Y56.455 E.06062
G1 X106.661 Y56.27 E.00848
G1 X106.44 Y56.136 E.00811
G1 X106.44 Y58.465 E.07303
G1 X106.219 Y58.547 E.00739
G1 X106.021 Y58.584 E.00631
G1 X106.021 Y56.018 E.08045
G1 X105.997 Y56.015 E.00075
G1 X105.817 Y56.012 E.00565
G1 X105.602 Y56.042 E.00681
G1 X105.602 Y58.559 E.07893
G1 X105.394 Y58.494 E.00682
G1 X105.183 Y58.383 E.00748
G1 X105.183 Y56.218 E.06789
G1 X104.962 Y56.399 E.00896
G1 X104.764 Y56.662 E.01032
G1 X104.764 Y58.236 E.04935
M204 S1000
;WIPE_START
G1 F8640
G1 X104.764 Y56.662 E-.36346
G1 X104.962 Y56.399 E-.07596
G1 X105.183 Y56.218 E-.06598
G1 X105.183 Y58.144 E-.4446
;WIPE_END
G1 E-.05 F2100
G1 Z.4 F720
G1 X103.797 Y59.437 F10800
G1 Z.2 F720
G1 E1 F2100
M204 S800
;TYPE:Perimeter
G1 F1200
G1 X103.465 Y59.054 E.01589
G1 X103.302 Y58.804 E.00936
G1 X103.117 Y58.43 E.01307
G1 X102.957 Y57.905 E.01721
G1 X102.896 Y57.353 E.01743
G1 X102.938 Y56.799 E.01743
G1 X103.081 Y56.262 E.01743
G1 X103.319 Y55.767 E.0172
G1 X103.553 Y55.432 E.01282
G1 X103.756 Y55.203 E.0096
G1 X104.17 Y54.852 E.01702
G1 X104.653 Y54.577 E.01743
G1 X105.165 Y54.4 E.01699
G1 X105.458 Y54.343 E.00935
G1 X105.866 Y54.312 E.01283
G1 X106.421 Y54.359 E.01745
G1 X106.956 Y54.51 E.01744
G1 X107.454 Y54.756 E.01743
G1 X107.898 Y55.091 E.01743
G1 X108.272 Y55.501 E.01743
G1 X108.561 Y55.969 E.01721
G1 X108.719 Y56.354 E.01307
G1 X108.8 Y56.642 E.00936
G1 X108.872 Y57.179 E.017
G1 X108.844 Y57.72 E.01699
G1 X108.787 Y58.013 E.00935
G1 X108.663 Y58.403 E.01283
G1 X108.411 Y58.899 E.01745
G1 X108.071 Y59.34 E.01744
G1 X107.666 Y59.7 E.017
G1 X107.418 Y59.865 E.00936
G1 X107.046 Y60.055 E.01307
G1 X106.523 Y60.221 E.01721
G1 X105.972 Y60.289 E.01743
G1 X105.424 Y60.254 E.01721
G1 X105.018 Y60.16 E.01307
G1 X104.737 Y60.06 E.00936
G1 X104.256 Y59.808 E.017
G1 X103.84 Y59.479 E.01665
M204 S1000
G1 X104.082 Y59.189 F10800
M204 S800
;TYPE:External perimeter
G1 F1200
G1 X103.767 Y58.827 E.01506
G1 X103.631 Y58.617 E.00785
G1 X103.469 Y58.29 E.01142
G1 X103.328 Y57.829 E.01514
G1 X103.274 Y57.346 E.01522
G1 X103.311 Y56.862 E.01522
G1 X103.437 Y56.393 E.01522
G1 X103.646 Y55.958 E.01514
G1 X103.85 Y55.666 E.01118
G1 X104.021 Y55.473 E.00808
G1 X104.387 Y55.162 E.01507
G1 X104.809 Y54.922 E.01522
G1 X105.263 Y54.765 E.01506
G1 X105.509 Y54.717 E.00784
G1 X105.864 Y54.69 E.01119
G1 X106.353 Y54.732 E.01537
G1 X106.82 Y54.863 E.01522
G1 X107.255 Y55.078 E.01522
G1 X107.643 Y55.371 E.01522
G1 X107.97 Y55.729 E.01522
G1 X108.224 Y56.14 E.01514
G1 X108.362 Y56.477 E.01142
G1 X108.43 Y56.718 E.00785
G1 X108.494 Y57.194 E.01506
G1 X108.468 Y57.674 E.01506
G1 X108.421 Y57.92 E.00784
G1 X108.313 Y58.26 E.01118
G1 X108.091 Y58.697 E.01537
G1 X107.794 Y59.081 E.01522
G1 X107.435 Y59.401 E.01506
G1 X107.227 Y59.539 E.00784
G1 X106.903 Y59.705 E.01142
G1 X106.443 Y59.851 E.01514
G1 X105.961 Y59.911 E.01522
G1 X105.479 Y59.88 E.01514
G1 X105.124 Y59.798 E.01142
G1 X104.888 Y59.713 E.00785
G1 X104.463 Y59.49 E.01507
G1 X104.129 Y59.227 E.01334
M204 S1000
G1 X103.698 Y59.302 F10800
;WIPE_START
G1 F8640
G1 X103.767 Y58.827 E-.12457
G1 X103.631 Y58.617 E-.05778
G1 X103.469 Y58.29 E-.0841
G1 X103.328 Y57.829 E-.1115
G1 X103.274 Y57.346 E-.11208
G1 X103.311 Y56.862 E-.11207
G1 X103.437 Y56.393 E-.11208
G1 X103.646 Y55.958 E-.11148
G1 X103.85 Y55.666 E-.08236
G1 X103.97 Y55.53 E-.04197
;WIPE_END
G1 E-.05 F2100
G1 Z.4 F720
G1 X77.936 Y76.463 F10800
G1 Z.2 F720
G1 E1 F2100
M204 S800
;TYPE:Perimeter
G1 F1200
G1 X125.047 Y29.352 E2.08901
G1 X153.806 Y58.11 E1.27521
M73 P1 R119
G1 X155.439 Y58.787 E.05541
G1 X214.67 Y58.787 E1.85714
G1 X215.056 Y58.796 E.01211
G1 X215.827 Y58.867 E.02429
G1 X216.582 Y59.008 E.02407
G1 X217.32 Y59.218 E.02407
G1 X218.036 Y59.496 E.02407
G1 X218.73 Y59.841 E.02429
G1 X219.049 Y60.029 E.01163
G1 X219.655 Y60.443 E.02301
G1 X220.279 Y60.958 E.02536
G1 X220.822 Y61.5 E.02404
G1 X221.312 Y62.09 E.02407
G1 X221.746 Y62.724 E.02407
G1 X222.12 Y63.395 E.02407
G1 X222.43 Y64.097 E.02407
G1 X222.674 Y64.825 E.02407
G1 X222.849 Y65.572 E.02407
G1 X222.956 Y66.333 E.02407
G1 X222.991 Y67.1 E.02407
G1 X222.956 Y67.867 E.02407
G1 X222.849 Y68.634 E.02429
G1 X222.772 Y68.996 E.01162
G1 X222.56 Y69.741 E.02429
G1 X222.283 Y70.457 E.02407
G1 X221.941 Y71.144 E.02407
G1 X221.536 Y71.797 E.02407
G1 X221.073 Y72.41 E.02408
G1 X220.579 Y72.953 E.02302
G1 X220.283 Y73.239 E.01291
G1 X219.688 Y73.733 E.02425
G1 X219.055 Y74.167 E.02407
G1 X218.384 Y74.54 E.02407
G1 X217.682 Y74.851 E.02407
G1 X216.947 Y75.097 E.02429
G1 X216.589 Y75.19 E.01161
G1 X215.827 Y75.332 E.02429
G1 X215.056 Y75.404 E.02429
G1 X214.67 Y75.413 E.01212
G1 X135.144 Y75.424 E2.49347
G1 X134.069 Y75.524 E.03385
G1 X133.008 Y75.722 E.03385
G1 X131.97 Y76.018 E.03385
G1 X130.963 Y76.408 E.03385
G1 X129.997 Y76.889 E.03385
G1 X129.079 Y77.457 E.03385
G1 X128.217 Y78.108 E.03385
G1 X127.419 Y78.835 E.03385
G1 X126.692 Y79.633 E.03385
G1 X126.041 Y80.494 E.03385
G1 X125.473 Y81.412 E.03385
G1 X124.992 Y82.379 E.03385
G1 X124.602 Y83.385 E.03385
G1 X124.307 Y84.424 E.03385
G1 X124.108 Y85.485 E.03385
G1 X124.009 Y86.56 E.03385
G1 X123.997 Y166.085 E2.49347
G1 X123.988 Y166.472 E.01212
G1 X123.916 Y167.243 E.02429
G1 X123.774 Y168.004 E.02429
G1 X123.681 Y168.363 E.01163
G1 X123.448 Y169.059 E.02301
G1 X123.124 Y169.801 E.02536
G1 X122.751 Y170.47 E.02404
G1 X122.317 Y171.104 E.02407
G1 X121.827 Y171.695 E.02407
G1 X121.284 Y172.237 E.02407
G1 X120.693 Y172.728 E.02407
G1 X120.06 Y173.162 E.02407
G1 X119.389 Y173.535 E.02407
G1 X118.687 Y173.846 E.02407
G1 X117.959 Y174.09 E.02407
G1 X117.211 Y174.265 E.02407
G1 X116.451 Y174.371 E.02407
G1 X115.684 Y174.407 E.02407
G1 X114.917 Y174.371 E.02407
G1 X114.156 Y174.265 E.02409
G1 X113.441 Y174.098 E.02302
G1 X113.047 Y173.978 E.01291
G1 X112.326 Y173.699 E.02425
G1 X111.639 Y173.356 E.02407
G1 X110.986 Y172.952 E.02407
G1 X110.373 Y172.489 E.02408
G1 X109.83 Y171.995 E.02302
G1 X109.545 Y171.699 E.0129
G1 X109.051 Y171.104 E.02425
G1 X108.617 Y170.47 E.02407
G1 X108.243 Y169.8 E.02407
G1 X107.933 Y169.097 E.02408
G1 X107.699 Y168.401 E.02302
G1 X107.593 Y168.003 E.01291
G1 X107.451 Y167.243 E.02425
G1 X107.38 Y166.472 E.02428
G1 X107.371 Y166.085 E.01211
G1 X107.371 Y106.855 E1.85714
G1 X106.695 Y105.222 E.05541
G1 X77.978 Y76.506 E1.27333
M204 S1000
G1 X77.403 Y76.463 F10800
M204 S800
;TYPE:External perimeter
G1 F1200
G1 X125.047 Y28.818 E2.11265
G1 X154.02 Y57.791 E1.28468
